invoice-text-plus-outline.svg

<svg fill="currentColor" viewBox="0 0 24 24"><path d="M21 13.34c-.63-.22-1.3-.34-2-.34V5H5v13.26l1-.66 3 2 3-2 1.04.69c-.04.21-.04.47-.04.71 0 .65.1 1.28.3 1.86L12 20l-3 2-3-2-3 2V3h18zM17 9V7H7v2zm-2 4v-2H7v2zm3 2v3h-3v2h3v3h2v-3h3v-2h-3v-3z"/></svg>

<svg  viewBox="0 0 24 24" fill="currentColor"><path  d="M21 13.34C20.37 13.12 19.7 13 19 13V5H5V18.26L6 17.6L9 19.6L12 17.6L13.04 18.29C13 18.5 13 18.76 13 19C13 19.65 13.1 20.28 13.3 20.86L12 20L9 22L6 20L3 22V3H21V13.34M17 9V7H7V9H17M15 13V11H7V13H15M18 15V18H15V20H18V23H20V20H23V18H20V15H18Z"/></svg>
